icon-themes/elementary_svg/cmd/32/label.svg

<svg height="32" width="32" xmlns="http://www.w3.org/2000/svg" xmlns:xlink="http://www.w3.org/1999/xlink"><linearGradient id="a" gradientUnits="userSpaceOnUse" x1="22.122164" x2="22.122164" xlink:href="#b" y1="10.665936" y2="1.299912"/><linearGradient id="b"><stop offset="0" stop-color="#917f6e"/><stop offset="1" stop-color="#cbbaa9"/></linearGradient><linearGradient id="c" gradientTransform="matrix(1.24495 0 0 1.2452213 -29.306419 -1.954289)" gradientUnits="userSpaceOnUse" x1="40.006763" x2="40.006763" xlink:href="#d" y1="12.910877" y2="7.092457"/><linearGradient id="d"><stop offset="0" stop-color="#fff"/><stop offset="1" stop-color="#fff" stop-opacity="0"/></linearGradient><linearGradient id="e" gradientTransform="matrix(1.3913044 0 0 1.3913096 -34.652174 -3.953746)" gradientUnits="userSpaceOnUse" x1="38.382198" x2="38.382198" xlink:href="#d" y1="5.90625" y2="22.697742"/><linearGradient id="f" gradientUnits="userSpaceOnUse" x1="20.374344" x2="20.374344" y1="5.330717" y2="29.212134"><stop offset="0" stop-color="#fff4e9"/><stop offset="1" stop-color="#e7d6c5"/></linearGradient><linearGradient id="g" gradientUnits="userSpaceOnUse" x1="9.854274" x2="9.854274" xlink:href="#b" y1="29.181693" y2="3.833335"/><radialGradient id="h" cx="10.471204" cy="20.146597" gradientTransform="matrix(1.3022726 0 0 .4340909 -1.636363 16.587087)" gradientUnits="userSpaceOnUse" r="9.21466"><stop offset="0"/><stop offset="1" stop-opacity="0"/></radialGradient><path d="m23.999998 25.332543a11.999999 4 0 1 1 -23.99999782 0 11.999999 4 0 1 1 23.99999782 0z" fill="url(#h)" fill-rule="evenodd" opacity=".3"/><path d="m15.166666 4.5000007-12.666666 13.1249993 11 10.875 12.999999-12.666667v-11.3333323zm5.333334 3.9999999c1.104 0 1.999999.896 1.999999 1.9999994 0 1.104-.895999 2-1.999999 2s-2-.896-2-2c0-1.1039994.896-1.9999994 2-1.9999994z" fill="url(#f)" fill-rule="evenodd" stroke="url(#g)"/><g fill="none"><path d="m15.606156 5.5000004s-11.606156 12.0912406-11.606156 12.0912406 9.5 9.525114 9.5 9.525114 12-11.78853 12-11.78853v-9.8278246z" opacity=".6" stroke="url(#e)"/><path d="m20.491579 7.5016105c1.883968-.066433 3.437389 1.9348161 2.901167 3.7441565-.398183 1.775458-2.583912 2.798657-4.198626 1.952499-1.662006-.734293-2.241344-3.07207-1.102204-4.4918193.553372-.7489857 1.467356-1.2120498 2.399663-1.2048362z" opacity=".6" stroke="url(#c)"/><path d="m20.666666 9.9992689c1.478691-.7829587 3.405365-1.0228253 5.235829-1.063652.822863-.018347 1.654592.1492 2.46204-.042853 1.027656-.24444 1.727978-.9973507 1.625532-1.6856653-.137521-.923952-1.378689-1.606032-2.542748-2.094132-1.032544-.4329546-1.827258-1.2044693-2.247248-2.0194866-.212194-.4117773.158382-.8441478.752791-.97688.539995-.1205813 1.105576-.1682437 1.65506-.045808.836323.186349 1.823576.4136938 2.212627 1.0062134" stroke="url(#a)"/></g></svg>

<?xml version="1.0" encoding="UTF-8" standalone="no"?>
<svg
   xmlns:dc="http://purl.org/dc/elements/1.1/"
   xmlns:cc="http://creativecommons.org/ns#"
   xmlns:rdf="http://www.w3.org/1999/02/22-rdf-syntax-ns#"
   xmlns:svg="http://www.w3.org/2000/svg"
   xmlns="http://www.w3.org/2000/svg"
   xmlns:xlink="http://www.w3.org/1999/xlink"
   xmlns:sodipodi="http://sodipodi.sourceforge.net/DTD/sodipodi-0.dtd"
   xmlns:inkscape="http://www.inkscape.org/namespaces/inkscape"
   id="svg2932"
   height="32"
   width="32"
   version="1.1"
   sodipodi:docname="label.svg"
   inkscape:version="0.92.3 (unknown)"
   inkscape:export-filename="/home/rizmut/Dokumen/Rizmut/Github/libreoffice-style-elementary/images_elementary/cmd/32/label.png"
   inkscape:export-xdpi="96"
   inkscape:export-ydpi="96">
  <sodipodi:namedview
     pagecolor="#ffffff"
     bordercolor="#666666"
     borderopacity="1"
     objecttolerance="10"
     gridtolerance="10"
     guidetolerance="10"
     inkscape:pageopacity="0"
     inkscape:pageshadow="2"
     inkscape:window-width="1366"
     inkscape:window-height="706"
     id="namedview28"
     showgrid="false"
     inkscape:zoom="7.375"
     inkscape:cx="-1.4237288"
     inkscape:cy="16"
     inkscape:window-x="0"
     inkscape:window-y="0"
     inkscape:window-maximized="1"
     inkscape:current-layer="svg2932" />
  <defs
     id="defs2934">
    <linearGradient
       gradientTransform="matrix(1.3333333,0,0,1.3333333,-1.3333332,1.3326026)"
       gradientUnits="userSpaceOnUse"
       xlink:href="#linearGradient3251"
       id="linearGradient2865"
       y2="-0.02451775"
       x2="17.591623"
       y1="7"
       x1="17.591623" />
    <linearGradient
       id="linearGradient3251">
      <stop
         offset="0"
         style="stop-color:#917f6e;stop-opacity:1"
         id="stop3253" />
      <stop
         offset="1"
         style="stop-color:#cbbaa9;stop-opacity:1"
         id="stop3255" />
    </linearGradient>
    <linearGradient
       gradientTransform="matrix(1.24495,0,0,1.2452213,-29.306419,-1.9542885)"
       gradientUnits="userSpaceOnUse"
       xlink:href="#linearGradient4222"
       id="linearGradient2868"
       y2="7.0924568"
       x2="40.006763"
       y1="12.910877"
       x1="40.006763" />
    <linearGradient
       id="linearGradient4222">
      <stop
         offset="0"
         style="stop-color:#ffffff;stop-opacity:1"
         id="stop4224" />
      <stop
         offset="1"
         style="stop-color:#ffffff;stop-opacity:0"
         id="stop4226" />
    </linearGradient>
    <linearGradient
       gradientTransform="matrix(1.3913044,0,0,1.3913096,-34.652174,-3.9537464)"
       gradientUnits="userSpaceOnUse"
       xlink:href="#linearGradient4222"
       id="linearGradient2871"
       y2="22.697742"
       x2="38.382198"
       y1="5.90625"
       x1="38.382198" />
    <linearGradient
       gradientTransform="matrix(1.3333333,0,0,1.3333333,-32.833332,-2.8333323)"
       gradientUnits="userSpaceOnUse"
       xlink:href="#linearGradient3243"
       id="linearGradient2874"
       y2="24.0341"
       x2="39.905758"
       y1="6.1230369"
       x1="39.905758" />
    <linearGradient
       id="linearGradient3243">
      <stop
         offset="0"
         style="stop-color:#fff4e9;stop-opacity:1"
         id="stop3245" />
      <stop
         offset="1"
         style="stop-color:#e7d6c5;stop-opacity:1"
         id="stop3247" />
    </linearGradient>
    <linearGradient
       gradientTransform="matrix(1.3333333,0,0,1.3333333,-32.833332,-2.8333323)"
       gradientUnits="userSpaceOnUse"
       xlink:href="#linearGradient3251"
       id="linearGradient2876"
       y2="5"
       x2="32.015705"
       y1="24.011269"
       x1="32.015705" />
    <linearGradient
       id="linearGradient3283">
      <stop
         offset="0"
         style="stop-color:#000000;stop-opacity:1"
         id="stop3285" />
      <stop
         offset="1"
         style="stop-color:#000000;stop-opacity:0"
         id="stop3287" />
    </linearGradient>
    <radialGradient
       gradientTransform="matrix(1.3022726,0,0,0.4340909,-1.6363627,16.587087)"
       gradientUnits="userSpaceOnUse"
       xlink:href="#linearGradient3283"
       id="radialGradient2930"
       fy="20.146597"
       fx="10.471204"
       r="9.2146597"
       cy="20.146597"
       cx="10.471204" />
  </defs>
  <metadata
     id="metadata2937">
    <rdf:RDF>
      <cc:Work
         rdf:about="">
        <dc:format>image/svg+xml</dc:format>
        <dc:type
           rdf:resource="http://purl.org/dc/dcmitype/StillImage" />
        <dc:title></dc:title>
      </cc:Work>
    </rdf:RDF>
  </metadata>
  <path
     d="m 23.999998,25.332543 a 11.999999,4 0 1 1 -23.99999782499999,0 11.999999,4 0 1 1 23.99999782499999,0 z"
     id="path3281"
     style="display:inline;overflow:visible;visibility:visible;opacity:0.3;fill:url(#radialGradient2930);fill-opacity:1;fill-rule:evenodd;stroke:none;stroke-width:1;marker:none;enable-background:accumulate" />
  <path
     d="M 15.166666,4.5000007 2.5,17.625 13.5,28.5 26.499999,15.833333 l 0,-11.3333323 -11.333333,0 z M 20.5,8.5000006 c 1.104,0 1.999999,0.896 1.999999,1.9999994 0,1.104 -0.895999,2 -1.999999,2 -1.104,0 -2,-0.896 -2,-2 0,-1.1039994 0.896,-1.9999994 2,-1.9999994 z"
     id="path2463"
     style="fill:url(#linearGradient2874);fill-opacity:1;fill-rule:evenodd;stroke:url(#linearGradient2876);stroke-width:1px;stroke-linecap:butt;stroke-linejoin:miter;stroke-opacity:1" />
  <path
     d="M 15.606156,5.5000004 C 15.606156,5.5000004 4,17.591241 4,17.591241 c 0,0 9.5,9.525114 9.5,9.525114 0,0 12,-11.78853 12,-11.78853 0,0 0,-9.8278246 0,-9.8278246 0,0 -9.893844,0 -9.893844,0 z"
     id="path3265"
     style="opacity:0.6;fill:none;stroke:url(#linearGradient2871);stroke-width:0.99999994px;stroke-linecap:butt;stroke-linejoin:miter;stroke-opacity:1" />
  <path
     d="m 20.491579,7.5016105 c 1.883968,-0.066433 3.437389,1.9348161 2.901167,3.7441565 -0.398183,1.775458 -2.583912,2.798657 -4.198626,1.952499 -1.662006,-0.734293 -2.241344,-3.07207 -1.102204,-4.4918193 0.553372,-0.7489857 1.467356,-1.2120498 2.399663,-1.2048362 z"
     id="path3294"
     style="opacity:0.6;fill:none;stroke:url(#linearGradient2868);stroke-width:0.99999994px;stroke-linecap:butt;stroke-linejoin:miter;stroke-opacity:1" />
  <path
     d="m 20.666666,9.9992689 c 1.478691,-0.7829587 3.405365,-1.0228253 5.235829,-1.063652 0.822863,-0.018347 1.654592,0.1492 2.46204,-0.042853 1.027656,-0.24444 1.727978,-0.9973507 1.625532,-1.6856653 C 29.852546,6.2831466 28.611378,5.6010666 27.447319,5.1129666 26.414775,4.680012 25.620061,3.9084973 25.200071,3.09348 24.987877,2.6817027 25.358453,2.2493322 25.952862,2.1166 c 0.539995,-0.1205813 1.105576,-0.1682437 1.65506,-0.045808 0.836323,0.186349 1.823576,0.4136938 2.212627,1.0062134"
     id="path3298"
     style="fill:none;stroke:url(#linearGradient2865);stroke-width:0.99999988px;stroke-linecap:butt;stroke-linejoin:miter;stroke-opacity:1" />
</svg>
